X:1
T: Geese in a Bog
C:
R:Jig
Q:180
K:D
M:6/8
L:1/16
d2|:A2d2d2 f2d2B2|A2F2A2 A2F2A2|A2d2d2 f2d2B2|A2F2A2 B4A2|
A2d2d2 f2d2B2|A2F2A2 D2F2A2|g2f2e2 f2d2B2|A2F2A2 B2d2B2:|
|:A2F2E2 D2F2E2|D2F2A2 B2d2B2|A2F2D2 D2F2A2|B2G2A2 B2d2B2|
A2F2E2 D2F2E2|D2F2A2 B2g2f2|g2f2e2 f2d2B2|1A2F2A2 B6|2A2F2A2 B4||
